X:1
T: The Kincairn Loon
C:
R:Reel
Q: 232
K:G
M:4/4
L:1/8
D2|G,2 B,D CE GE|D2 FA BG GF|E2 GE D2 B,G,|A,^C EG FD =CA,|
G,2 B,D CE GE|D2 FA BG GF|E2 GE DG BG|Ac BA G2 G2|
G,2 B,D CE GE|D2 FA BG GF|E2 GE D2 B,G,|A,^C EG FD =CA,|
G,2 B,D CE GE|D2 FA BG GF|E2 GE DG BG|Ac BA G2 GA|
B2 dB Ac BA|G2 BG FA GF|E2 GE DB, A,G,|A,D ^CE DE FA|
B2 dB Ac BA|G2 BG FA GF|E2 GE DG BG|Ac BA G2 GA|
B2 dB Ac BA|GA BG FA GF|EF GE DB, A,G,|A,D ^CE D=C B,A,|
G,2 B,D CE GE|D2 FA BG GF|E2 GE DG BG|Ac BA G2||
